X: 292
U:~=!turn!
M:C
L:1/8
K:G
|: B/c/ |\
dd "#"~dg ddd (B/c/) | d"#"~d (eg) d3 (B/c/) | "_expres"dd {/d}b>a {/a}g>f {/f}e>d |
{/d}c>B {/B}A>G {/G}F>E FD | G<G g<g (g/b/)(a/f/) (g/d/)(B/G/) | GG ~GA/B/ E3 ~x (F/G/) | DD DE ~F>G ~A>B | Tc3/2(d/4e/4) dF [B,3D3G3] :|
P: Alternate B part:
|: "_or" z |\
 (3B,/D/G/ (3B,/D/G/ (3B,/D/G/ (3B,/D/G/ (3B,/D/G/ (3B,/D/G/ (3B,/D/G/ (3B,/D/G/ |\
 (3B,/D/G/ (3B,/D/G/ (3B,/D/G/ (3B,/D/G/ (3B,/D/G/ (3B,/D/G/ B, z | |


